X: 9
T: Shoe The Donkey
R: mazurka
M: 3/4
L: 1/8
K: Gmaj
|: B>c |B2 D2 B>c | B2 D2 B>c | d2 e2 d2 | A4 A>B |
A2 D2 A>B | A2 D2 A>B | c2 e2 d2 | G4 :|
|: B>c |d2 g2 f2 | A4 A>B | c2 e2 d2 | B4 B>c |
B2 A2 B2 | c4 A>B | c2 e2 d2 | G4 :|


Tune 2320	Setting 15696

